X:1
T:Shalem, LM
T:Shalem, LM
T:Lowell Mason, 1844
T:Public Domain Courtesy of the Cyber Hymnal™
C:Lowell Mason, 1844
Z:Public Domain
Z:Courtesy of the Cyber Hymnal™
%%score ( 1 2 ) ( 3 4 )
L:1/8
Q:1/4=110
M:4/4
K:G
V:1 treble 
V:2 treble 
V:3 bass 
V:4 bass 
V:1
 D2 | G3 D [DG]2 [DA]2 | [DB]3 [CA] [B,G]2 [DA]2 | [DB]2 [GB]2 [Gc]2 [Ge]2 | [Gd]3 [Gc] [GB]2 G2 | %5
 [Ge]3 [Ec] [EG]2 [Ge]2 | [Gd]3 [DB] [B,G]2 !>!B,2 | !>!C2 !>!D2 !>!E2 !>![EA]2 | [DG]4 [DF]4 | %9
 [DG]6 |] %10
V:2
 D2 | G3 D x4 | x8 | x8 | x6 G2 | x8 | x6 B,2 | C2 D2 E2 x2 | x8 | x6 |] %10
V:3
 D,2 | G,3 D, [B,,D,]2 [D,F,]2 | G,3 G, G,2 [D,F,]2 | G,2 G,2 [E,G,]2 [C,C]2 | %4
 [G,B,]3 [G,A,] G,2 [G,B,]2 | [C,C]3 [C,G,] [C,G,]2 [C,C]2 | [G,,B,]3 [G,,G,] [G,,G,]2 !>!B,,2 | %7
 !>!C,2 !>!D,2 !>!E,2 !>![C,C]2 | [D,B,]4 [D,A,]4 | [G,,B,]6 |] %10
V:4
 D,2 | G,3 D, x4 | G,3 G, G,2 x2 | G,2 G,2 x4 | x4 G,2 x2 | x8 | x6 B,,2 | C,2 D,2 E,2 x2 | x8 | %9
 x6 |] %10

